X:1
T:Pitt, 76.76 D
T:Pitt, 76.76 D
T:E. B. Smith, 1878 
T:Public Domain Courtesy of the Cyber Hymnal™
C:E. B. Smith, 1878
Z:Public Domain
Z:Courtesy of the Cyber Hymnal™
%%score ( 1 2 ) ( 3 4 )
L:1/8
Q:1/4=110
M:4/4
K:Bb
V:1 treble 
V:2 treble 
V:3 bass 
V:4 bass 
V:1
 [DF]2 | [DF]2 ([^C=E][DF]) [DB]2 [Fd]2 | [Ed]2 [Ec]2 z2 [DB]2 | [EA]2 (AG) [EF]2 [Ec]2 | %4
 [DB]4 z2 [DF]2 | [DF]2 ([^C=E][DF]) [DB]2 [Fd]2 | [Gd]2 [Gc]2 z2 [EG]2 | [EA]2 (GF) [Fd]3 [Ec] | %8
 [DB]4 z2 [DF]2 | [EF]2 (FG) [EA]2 [Ec]2 | [Ec]2 [DB]2 z2 [DF]2 | [EF]2 (FG) [EA]2 [Ec]2 | %12
 [DB]4 z2 [DB]2 | [DB]2 ([DB][Ec]) [Fd]2 [_Af]2 | [Af]2 [Ge]2 z2 [Ec]2 | %15
 [DB]2 ([CA][Ec]) [Fd]3 [Ec] | [DB]6 |] %17
V:2
 x2 | x8 | x8 | x2 E2 x4 | x8 | x8 | x8 | x2 E2 x4 | x8 | x2 E2 x4 | x8 | x2 E2 x4 | x8 | x8 | x8 | %15
 x8 | x6 |] %17
V:3
 [B,,B,]2 | [B,,B,]2 [B,,B,]2 [B,,B,]2 [B,,B,]2 | [F,A,]2 [F,A,]2 z2 [F,B,]2 | %3
 [F,C]2 (CB,) [F,A,]2 [F,A,]2 | [B,,B,]4 z2 [B,,B,]2 | [B,,B,]2 [B,,B,]2 [B,,B,]2 [B,,B,]2 | %6
 [E,B,]2 [E,B,]2 z2 [E,B,]2 | F,2 [F,A,]2 [F,A,]3 [F,A,] | [B,,B,]4 z2 [B,,B,]2 | %9
 [F,A,]2 (A,B,) [F,C]2 [F,A,]2 | [B,,B,]2 [B,,B,]2 z2 [B,,B,]2 | [F,A,]2 (A,B,) [F,C]2 [F,A,]2 | %12
 [B,,B,]4 z2 [B,,B,]2 | [B,,B,]2 [B,,B,]2 [B,,B,]2 [B,,B,]2 | [E,B,]2 [E,B,]2 z2 [E,G,]2 | %15
 F,2 F,2 [F,A,]3 [F,A,] | [B,,B,]6 |] %17
V:4
 x2 | x8 | x8 | x2 F,2 x4 | x8 | x8 | x8 | F,2 x6 | x8 | x2 F,2 x4 | x8 | x2 F,2 x4 | x8 | x8 | %14
 x8 | F,2 F,2 x4 | x6 |] %17

